X:83
T:Willie's Brogues 
C:Joe Buchanan's Scottish Tome - Page 385.1
I:385 1
C:Angus Laurie
Z:Carl Allison
R:Hornpipe
L:1/8
M:2/4
K:D
(f/>e/) | "D {c}d "{c}d(d/>B/) A/>A/A/>B/ | "D"d/>c/d/>e/ "Bm"f(a/>f/)  | "Em"ee e/>f/d/>f/ | "Em"e/>d/B/>d/ "A"{f}e(f/>e/) |
"D"{c}d(d/>B/) A/>A/A/>B/ | "D"d/>c/d/>e/ "Bm"f(a/>f/) | "A"eA "A7"a/>g/f/<e/ | "D"{c}d2 {d}d :|
(f/>g/) | "D"a(a/>g/) f/>g/f/>e/ | "D"d/>e/f/>d/  "A7"{Bd}BA | "D"{c}dd/>e/ d/>e/f/>d/ | "Em"e/d/B/d/ {f}e(f/>g/) |
"D"a(a/>g/) f/>g/f/>e/ | "D"d/>e/f/>d/ "Bm"{Bd}B(A/>B/) | "A7"{f}eA a/>g/f/>e/ | "D"{c}d2 {c}d"A"(f/>g/) |
"D"a(a/>g/) f/>g/f/>e/ | "D"d/>e/f/>d/ g "A7"{Bd}BA | "D"{c}d(d/>e/) d/>e/f/>d/ | "Em"e/>d/B/>d/ "A"{f}e(f/>e/) |
"D"{c}dd/>B/ A/>A/A/>B/ | "D"d/>c/d/>e/ "Bm"f(a/>f/) | "A"eA "A7"a/>g/f/<e/ | "D"{c}d2 {d}d |]

